X: 10700
T: Down To Carlow
R: jig
M: 6/8
K: Adorian
|:ABA A2 G|E2 F G3|ABA A2 B|c2 d e2 d|
c2 B c2 G|E2 F G2 B|ABc B2 G|A3 A3:|
|:e2 a a2 g|e2 f g3|BcB B2 A|G2 A Bcd|
[1 e2 a a2 g|e2 f g3|BcB B2 G|A3 A3:|
[2 e2 g f2 a|g2 a g2 e|d2 B G2 B|g2 d B2 G||

